X: 7
T:Red Haired Boy
% Nottingham Music Database
S:Fiddler's Fakebook, via PR
M:4/4
L:1/4
K:A
A/2F/2|"A"EA A/2B/2c/2d/2|"A"e/2f/2e/2c/2 "D"dc/2d/2|\
"A"e/2d/2c/2B/2 A/2B/2c/2A/2|"G"B/2A/2E/2F/2 =G3/2F/2|
"A"EA A/2B/2c/2d/2|"A"e/2f/2e/2c/2 "D"dc/2d/2|"A"ea/2g/2 "E7"a/2f/2e/2d/2|\
"A"cA A::
e/2f/2|"G"=g/2f/2e/2f/2 g/2f/2e/2f/2|"G"=g/2f/2e/2c/2 "D"dc/2d/2|\
"A"e/2d/2c/2B/2 A/2B/2c/2A/2|
"G"B/2A/2E/2F/2 =G3/2F/2|"A"EA A/2B/2c/2d/2|"A"e/2f/2e/2c/2 "D"dc/2d/2|\
"A"ea/2g/2 "E7"a/2f/2e/2d/2|"A"cA A:|


